icons/lines/slack.svg

<svg xmlns="http://www.w3.org/2000/svg" width="24" height="24" viewBox="0 0 24 24" fill="none" stroke="currentColor" stroke-width="2" stroke-linecap="round" stroke-linejoin="round" >
  <path d="M14.4996 2.29999C13.4996 2.29999 12.5996 3.09999 12.5996 4.19999V8.79999C12.5996 9.79999 13.3996 10.7 14.4996 10.7C15.4996 10.7 16.3996 9.89999 16.3996 8.79999V4.09999C16.3996 3.09999 15.5996 2.29999 14.4996 2.29999Z" stroke-miterlimit="10"/>
  <path d="M18.5996 10.6H20.1996C21.0996 10.6 21.7996 9.89999 21.7996 8.99999C21.7996 8.09999 21.0996 7.39999 20.1996 7.39999C19.2996 7.39999 18.5996 8.09999 18.5996 8.99999V10.6Z" stroke-miterlimit="10"/>
  <path d="M2 9.19999C2 10.2 2.8 11.1 3.9 11.1H8.5C9.5 11.1 10.4 10.3 10.4 9.19999C10.4 8.19999 9.6 7.29999 8.5 7.29999H3.9C2.8 7.39999 2 8.19999 2 9.19999Z" stroke-miterlimit="10"/>
  <path d="M10.4002 5.1V3.6C10.4002 2.7 9.7002 2 8.8002 2C7.9002 2 7.2002 2.7 7.2002 3.6C7.2002 4.5 7.9002 5.2 8.8002 5.2H10.4002V5.1Z" stroke-miterlimit="10"/>
  <path d="M9.4 21.8C10.4 21.8 11.3 21 11.3 19.9V15.3C11.3 14.3 10.5 13.4 9.4 13.4C8.4 13.4 7.5 14.2 7.5 15.3V19.9C7.6 20.9 8.4 21.8 9.4 21.8Z" stroke-miterlimit="10"/>
  <path d="M5.4002 13.4H3.8002C2.9002 13.4 2.2002 14.1 2.2002 15C2.2002 15.9 2.9002 16.6 3.8002 16.6C4.7002 16.6 5.4002 15.9 5.4002 15V13.4Z" stroke-miterlimit="10"/>
  <path d="M21.9996 14.8C21.9996 13.8 21.1996 12.9 20.0996 12.9H15.4996C14.4996 12.9 13.5996 13.7 13.5996 14.8C13.5996 15.8 14.3996 16.7 15.4996 16.7H20.0996C21.0996 16.7 21.9996 15.8 21.9996 14.8Z" stroke-miterlimit="10"/>
  <path d="M13.5996 18.8V20.4C13.5996 21.3 14.2996 22 15.1996 22C16.0996 22 16.7996 21.3 16.7996 20.4C16.7996 19.5 16.0996 18.8 15.1996 18.8H13.5996Z" stroke-miterlimit="10"/>
  </svg>

<svg xmlns="http://www.w3.org/2000/svg" width="24" height="24" viewBox="0 0 24 24" fill="none" stroke="currentColor" stroke-width="2" stroke-linecap="round" stroke-linejoin="round">
  <path d="M10.4 5.2V3.6a1.58 1.58 0 1 0-1.6 1.6z" />
  <path d="M13.6 18.8v1.6a1.58 1.58 0 1 0 1.6-1.6z" />
  <path d="M14.5 2.3a1.9 1.9 0 0 0-1.9 1.9v4.6a1 1 0 0 0 3.8 0V4.1c0-1-.8-1.8-1.9-1.8" />
  <path d="M18.6 10.6h1.6A1.58 1.58 0 1 0 18.6 9z" />
  <path d="M2 9.2a1.9 1.9 0 0 0 1.9 1.9h4.6a1 1 0 0 0 0-3.8H3.9C2.8 7.4 2 8.2 2 9.2" />
  <path d="M22 14.8a1.9 1.9 0 0 0-1.9-1.9h-4.6a1 1 0 0 0 0 3.8h4.6a2 2 0 0 0 1.9-1.9" />
  <path d="M5.4 13.4H3.8A1.58 1.58 0 1 0 5.4 15z" />
  <path d="M9.4 21.8a1.9 1.9 0 0 0 1.9-1.9v-4.6a1 1 0 0 0-3.8 0v4.6c.1 1 .9 1.9 1.9 1.9" />
</svg>
